src/assets/icons/ico-maximize.svg

<svg width="24" height="24" viewBox="0 0 24 24" fill="none" xmlns="http://www.w3.org/2000/svg">
<g clip-path="url(#clip0_2346_334)">
<path d="M15.6861 14.4842L20.0092 14.4842C20.2347 14.4842 20.4509 14.3947 20.6103 14.2353C20.7697 14.0759 20.8592 13.8596 20.8592 13.6342C20.8592 13.4088 20.7697 13.1926 20.6103 13.0332C20.4509 12.8738 20.2347 12.7842 20.0092 12.7842L13.6342 12.7842C13.4088 12.7842 13.1926 12.8738 13.0332 13.0332C12.8738 13.1926 12.7842 13.4088 12.7842 13.6342L12.7842 20.0092C12.7842 20.2346 12.8738 20.4509 13.0332 20.6103C13.1926 20.7697 13.4088 20.8592 13.6342 20.8592C13.8596 20.8592 14.0759 20.7697 14.2353 20.6103C14.3947 20.4509 14.4842 20.2346 14.4842 20.0092L14.4842 15.6861L22.2833 23.4852L22.2832 23.4852L22.2845 23.4864C22.4448 23.6412 22.6595 23.7269 22.8824 23.725C23.1053 23.723 23.3184 23.6336 23.476 23.476C23.6336 23.3184 23.723 23.1053 23.725 22.8824C23.7269 22.6595 23.6412 22.4448 23.4864 22.2845L23.4864 22.2845L23.4852 22.2833L15.6861 14.4842Z" fill="#353B45" stroke="#353B45" stroke-width="0.2"/>
<path d="M7.9388 9.14078L3.61572 9.14078C3.39029 9.14078 3.17409 9.23034 3.01468 9.38974C2.85528 9.54915 2.76572 9.76535 2.76572 9.99078C2.76572 10.2162 2.85528 10.4324 3.01468 10.5918C3.17409 10.7512 3.39029 10.8408 3.61572 10.8408L9.99072 10.8408C10.2162 10.8408 10.4324 10.7512 10.5918 10.5918C10.7512 10.4324 10.8407 10.2162 10.8407 9.99078L10.8407 3.61578C10.8407 3.39035 10.7512 3.17415 10.5918 3.01474C10.4324 2.85534 10.2162 2.76578 9.99072 2.76578C9.76529 2.76578 9.54909 2.85534 9.38968 3.01474C9.23028 3.17415 9.14072 3.39035 9.14072 3.61578L9.14072 7.93886L1.71668 0.514822L1.71669 0.514812L1.71544 0.513604C1.55513 0.358771 1.34042 0.273094 1.11755 0.275031C0.894687 0.276968 0.681496 0.366361 0.523898 0.523957C0.366301 0.681555 0.276909 0.894746 0.274972 1.11761C0.273035 1.34048 0.358711 1.55519 0.513545 1.7155L0.513534 1.71551L0.514763 1.71674L7.9388 9.14078Z" fill="#353B45" stroke="#353B45" stroke-width="0.2"/>
<path d="M15.6861 14.4842L20.0092 14.4842C20.2347 14.4842 20.4509 14.3947 20.6103 14.2353C20.7697 14.0759 20.8592 13.8596 20.8592 13.6342C20.8592 13.4088 20.7697 13.1926 20.6103 13.0332C20.4509 12.8738 20.2347 12.7842 20.0092 12.7842L13.6342 12.7842C13.4088 12.7842 13.1926 12.8738 13.0332 13.0332C12.8738 13.1926 12.7842 13.4088 12.7842 13.6342L12.7842 20.0092C12.7842 20.2346 12.8738 20.4509 13.0332 20.6103C13.1926 20.7697 13.4088 20.8592 13.6342 20.8592C13.8596 20.8592 14.0759 20.7697 14.2353 20.6103C14.3947 20.4509 14.4842 20.2346 14.4842 20.0092L14.4842 15.6861L22.2833 23.4852L22.2832 23.4852L22.2845 23.4864C22.4448 23.6412 22.6595 23.7269 22.8824 23.725C23.1053 23.723 23.3184 23.6336 23.476 23.476C23.6336 23.3184 23.723 23.1053 23.725 22.8824C23.7269 22.6595 23.6412 22.4448 23.4864 22.2845L23.4864 22.2845L23.4852 22.2833L15.6861 14.4842Z" fill="#353B45" stroke="#353B45" stroke-width="0.2"/>
<path d="M7.9388 9.14078L3.61572 9.14078C3.39029 9.14078 3.17409 9.23034 3.01468 9.38974C2.85528 9.54915 2.76572 9.76535 2.76572 9.99078C2.76572 10.2162 2.85528 10.4324 3.01468 10.5918C3.17409 10.7512 3.39029 10.8408 3.61572 10.8408L9.99072 10.8408C10.2162 10.8408 10.4324 10.7512 10.5918 10.5918C10.7512 10.4324 10.8407 10.2162 10.8407 9.99078L10.8407 3.61578C10.8407 3.39035 10.7512 3.17415 10.5918 3.01474C10.4324 2.85534 10.2162 2.76578 9.99072 2.76578C9.76529 2.76578 9.54909 2.85534 9.38968 3.01474C9.23028 3.17415 9.14072 3.39035 9.14072 3.61578L9.14072 7.93886L1.71668 0.514822L1.71669 0.514812L1.71544 0.513604C1.55513 0.358771 1.34042 0.273094 1.11755 0.275031C0.894687 0.276968 0.681496 0.366361 0.523898 0.523957C0.366301 0.681555 0.276909 0.894746 0.274972 1.11761C0.273035 1.34048 0.358711 1.55519 0.513545 1.7155L0.513534 1.71551L0.514763 1.71674L7.9388 9.14078Z" fill="#353B45" stroke="#353B45" stroke-width="0.2"/>
</g>
<defs>
<clipPath id="clip0_2346_334">
<rect width="24" height="24" fill="white"/>
</clipPath>
</defs>
</svg>

<svg width="24" height="24" fill="none" xmlns="http://www.w3.org/2000/svg"><g clip-path="url(#a)" fill="#353B45" stroke="#353B45" stroke-width=".2"><path d="M15.6861 14.4842h4.3231a.85.85 0 1 0 0-1.7h-6.375a.85.85 0 0 0-.85.85v6.375a.8503.8503 0 0 0 .85.85.8502.8502 0 0 0 .85-.85v-4.3231l7.7991 7.7991h-.0001l.0013.0012a.8501.8501 0 0 0 1.2019-1.2019l-.0012-.0012-7.7991-7.7991ZM7.9388 9.1408h-4.323a.85.85 0 0 0 0 1.7h6.375a.85.85 0 0 0 .8499-.85v-6.375a.85.85 0 1 0-1.7 0v4.323L1.7167.5149 1.7154.5136A.85.85 0 0 0 .5135 1.7155l.0013.0012 7.424 7.424Z"/><path d="M15.6861 14.4842h4.3231a.85.85 0 1 0 0-1.7h-6.375a.85.85 0 0 0-.85.85v6.375a.8503.8503 0 0 0 .85.85.8502.8502 0 0 0 .85-.85v-4.3231l7.7991 7.7991h-.0001l.0013.0012a.8501.8501 0 0 0 1.2019-1.2019l-.0012-.0012-7.7991-7.7991ZM7.9388 9.1408h-4.323a.85.85 0 0 0 0 1.7h6.375a.85.85 0 0 0 .8499-.85v-6.375a.85.85 0 1 0-1.7 0v4.323L1.7167.5149 1.7154.5136A.85.85 0 0 0 .5135 1.7155l.0013.0012 7.424 7.424Z"/></g><defs><clipPath id="a"><path fill="#fff" d="M0 0h24v24H0z"/></clipPath></defs></svg>
